public/img/years-experience.svg

<svg width="48" height="48" viewBox="0 0 48 48" fill="none" xmlns="http://www.w3.org/2000/svg">
<rect width="48" height="48" rx="4" fill="#F4F6FC"/>
<path d="M19.5 12.75V15H28.5V12.75C28.5 12.375 28.8281 12 29.25 12C29.625 12 30 12.375 30 12.75V15H31.5C33.1406 15 34.5 16.3594 34.5 18V19.5V21V33C34.5 34.6875 33.1406 36 31.5 36H16.5C14.8125 36 13.5 34.6875 13.5 33V21V19.5V18C13.5 16.3594 14.8125 15 16.5 15H18V12.75C18 12.375 18.3281 12 18.75 12C19.125 12 19.5 12.375 19.5 12.75ZM15 21V33C15 33.8438 15.6562 34.5 16.5 34.5H31.5C32.2969 34.5 33 33.8438 33 33V21H15ZM16.5 16.5C15.6562 16.5 15 17.2031 15 18V19.5H33V18C33 17.2031 32.2969 16.5 31.5 16.5H16.5ZM24.9844 22.875L26.0156 24.9844L28.3125 25.3125C29.25 25.4531 29.625 26.5781 28.9688 27.2344L27.2812 28.8281L27.6562 31.125C27.8438 32.0625 26.8594 32.7656 26.0625 32.3438L24 31.2188L21.9375 32.3438C21.0938 32.7656 20.1094 32.0625 20.2969 31.125L20.6719 28.8281L19.0312 27.2344C18.3281 26.5781 18.7031 25.4531 19.6406 25.3125L21.9375 24.9844L22.9688 22.875C23.3906 22.0312 24.5625 22.0312 24.9844 22.875ZM23.1094 25.9688L22.9219 26.3438L22.5469 26.3906L20.625 26.6719L22.0312 28.0312L22.3125 28.3125L22.2188 28.6875L21.8906 30.6562L23.625 29.7188L24 29.5312L24.3281 29.7188L26.0625 30.6562L25.7344 28.6875L25.6875 28.3125L25.9688 28.0312L27.375 26.6719L25.4062 26.3906L25.0312 26.3438L24.8438 25.9688L24 24.2344L23.1094 25.9688Z" fill="#1A75BB"/>
</svg>

<svg xmlns="http://www.w3.org/2000/svg" width="48" height="48" fill="none"><rect width="48" height="48" fill="#F4F6FC" rx="4"/><path fill="#1A75BB" d="M19.5 12.75V15h9v-2.25c0-.375.328-.75.75-.75.375 0 .75.375.75.75V15h1.5c1.64 0 3 1.36 3 3v15c0 1.688-1.36 3-3 3h-15c-1.687 0-3-1.312-3-3V18c0-1.64 1.313-3 3-3H18v-2.25c0-.375.328-.75.75-.75.375 0 .75.375.75.75M15 21v12c0 .844.656 1.5 1.5 1.5h15c.797 0 1.5-.656 1.5-1.5V21zm1.5-4.5c-.844 0-1.5.703-1.5 1.5v1.5h18V18c0-.797-.703-1.5-1.5-1.5zm8.484 6.375 1.032 2.11 2.297.328c.937.14 1.312 1.265.656 1.921l-1.688 1.594.375 2.297c.188.938-.797 1.64-1.593 1.219L24 31.219l-2.062 1.125c-.844.422-1.829-.282-1.641-1.219l.375-2.297-1.64-1.594c-.704-.656-.329-1.78.609-1.922l2.297-.328 1.03-2.109a1.119 1.119 0 0 1 2.016 0m-1.875 3.094-.187.375-.375.047-1.922.28 1.406 1.36.282.282-.094.375-.328 1.968 1.734-.937.375-.188.328.188 1.735.937-.329-1.968-.047-.375.282-.282 1.406-1.36-1.969-.28-.375-.047-.187-.375L24 24.234z"/></svg>
